portfolio/ecw/static/images/icons/icon-phone-red.svg

<?xml version="1.0" encoding="UTF-8"?>
<svg width="50px" height="61px" viewBox="0 0 50 61" version="1.1" xmlns="http://www.w3.org/2000/svg" xmlns:xlink="http://www.w3.org/1999/xlink">
    <!-- Generator: Sketch 54.1 (76490) - https://sketchapp.com -->
    <title>ico_bargeldlos</title>
    <desc>Created with Sketch.</desc>
    <defs>
        <polygon id="path-1" points="0.00742574257 0.00503092784 50 0.00503092784 50 60.8742268 0.00742574257 60.8742268"></polygon>
    </defs>
    <g id="Desktop-+-Mobile" stroke="none" stroke-width="1" fill="none" fill-rule="evenodd">
        <g id="WAT-ECW-MS-StartSeite-Home" transform="translate(-133.000000, -2635.000000)">
            <g id="2.1-Vorteile" transform="translate(127.000000, 2441.000000)">
                <g id="ico_bargeldlos" transform="translate(6.000000, 194.000000)">
                    <g>
                        <g id="Group-3">
                            <mask id="mask-2" fill="white">
                                <use xlink:href="#path-1"></use>
                            </mask>
                            <g id="Clip-2"></g>
                            <path d="M45.0925743,0 L19.3857673,0 C16.7137376,0 14.480198,2.25020825 14.480198,4.96552577 L14.480198,18.3628866 L4.02128713,18.3628866 C1.83762376,18.3628866 0,20.1943959 0,22.4136639 L0,38.4605629 C0,40.6798309 1.83762376,42.5113402 4.02128713,42.5113402 L14.480198,42.5113402 L14.480198,55.908701 C14.480198,58.6240186 16.7137376,60.8742268 19.3857673,60.8742268 L45.0925743,60.8742268 C47.7649752,60.8742268 50,58.6240186 50,55.908701 L50,4.96552577 C50,2.25020825 47.7649752,0 45.0925743,0 Z M19.3857673,2.01237113 L45.0925743,2.01237113 C46.672896,2.01237113 48.019802,3.36003093 48.019802,4.96552577 L48.019802,9.81030928 L16.460396,9.81030928 L16.460396,4.96552577 C16.460396,3.36003093 17.8053218,2.01237113 19.3857673,2.01237113 Z M4.02128713,20.3752577 L30.9405941,20.3752577 L30.9405941,23.5195876 L1.98019802,23.5195876 L1.98019802,22.4136639 C1.98019802,21.3043443 2.92970297,20.3752577 4.02128713,20.3752577 Z M1.98019802,28.1731959 L30.9405941,28.1731959 L30.9405941,25.5319588 L1.98019802,25.5319588 L1.98019802,28.1731959 Z M1.98019802,38.4605629 L1.98019802,30.185567 L30.9405941,30.185567 L30.9405941,40.4989691 L4.02128713,40.4989691 C2.92970297,40.4989691 1.98019802,39.5698825 1.98019802,38.4605629 Z M30.9405941,42.5113402 L30.9405941,42.7368515 C30.9405941,43.2925175 31.3839109,43.7430371 31.9306931,43.7430371 C32.4774752,43.7430371 32.9207921,43.2925175 32.9207921,42.7368515 L32.9207921,18.1373753 C32.9207921,17.5817093 32.4774752,17.1311897 31.9306931,17.1311897 C31.3839109,17.1311897 30.9405941,17.5817093 30.9405941,18.1373753 L30.9405941,18.3628866 L16.460396,18.3628866 L16.460396,11.8226804 L48.019802,11.8226804 L48.019802,47.0391753 L16.460396,47.0391753 L16.460396,42.5113402 L30.9405941,42.5113402 Z M45.0925743,58.8618557 L19.3857673,58.8618557 C17.8053218,58.8618557 16.460396,57.5141959 16.460396,55.908701 L16.460396,49.0515464 L48.019802,49.0515464 L48.019802,55.908701 C48.019802,57.5141959 46.672896,58.8618557 45.0925743,58.8618557 Z" id="Fill-1" fill="#CD171A" mask="url(#mask-2)"></path>
                        </g>
                        <path d="M27.9580379,7 L36.0419621,7 C36.5710385,7 37,6.55225 37,6 C37,5.44775 36.5710385,5 36.0419621,5 L27.9580379,5 C27.4289615,5 27,5.44775 27,6 C27,6.55225 27.4289615,7 27.9580379,7 Z" id="Fill-4" fill="#CD171A"></path>
                        <path d="M32.4996959,50 C30.5670716,50 29,51.5671932 29,53.5001825 C29,55.4328068 30.5670716,57 32.4996959,57 C34.4328068,57 36,55.4328068 36,53.5001825 C35.9980536,51.5681664 34.4323202,50.0019464 32.4996959,50 Z M32.4996959,55.0536295 C31.6419547,55.0536295 30.9463705,54.3579236 30.9463705,53.5001825 C30.9463705,52.6420764 31.6419547,51.9463705 32.4996959,51.9463705 C33.3579236,51.9463705 34.0536295,52.6420764 34.0536295,53.5001825 C34.0526563,54.357437 33.357437,55.0526563 32.4996959,55.0536295 Z" id="Fill-5" fill="#CD171A"></path>
                        <path d="M9.02762866,33.0000845 C8.48948079,32.9995914 7.96183695,33.1474079 7.50088142,33.4272608 C6.25322357,32.6721511 4.64732974,32.9394291 3.70599846,34.0590873 C2.76466718,35.1787455 2.76466718,36.8213712 3.70599846,37.9410294 C4.64732974,39.0606876 6.25322357,39.3279656 7.50088142,38.5723627 C8.57778786,39.2239146 9.94367701,39.1218361 10.9137111,38.3181527 C11.8841117,37.513853 12.2490654,36.181408 11.825851,34.9885195 C11.4031252,33.7956311 10.2829813,33.0000845 9.02762866,33.0000845 Z M4.95646553,35.9998118 C4.95499985,35.6824808 5.09961335,35.3824094 5.3481678,35.1878685 C5.59623369,34.9933276 5.91978197,34.9258917 6.2241543,35.0054093 C5.99941711,35.6491943 5.99941711,36.3509224 6.2241543,36.9947074 C5.91978197,37.0742251 5.59623369,37.0067891 5.3481678,36.8122482 C5.09961335,36.6172142 4.95499985,36.3171428 4.95646553,35.9998118 Z M9.02762866,37.0275007 C8.94323008,37.0270076 8.85919791,37.0159121 8.77760854,36.9947074 C9.00234573,36.3509224 9.00234573,35.6491943 8.77760854,35.0054093 C9.15929535,34.9071526 9.56296732,35.0400519 9.81396457,35.3467806 C10.0643511,35.6540024 10.1168712,36.0793295 9.94892902,36.4390699 C9.78049827,36.7983172 9.42177373,37.0275007 9.02762866,37.0270076 L9.02762866,37.0275007 Z" id="Fill-6" fill="#CD171A"></path>
                    </g>
                </g>
            </g>
        </g>
    </g>
</svg>

<svg width="50" height="61" xmlns="http://www.w3.org/2000/svg" xmlns:xlink="http://www.w3.org/1999/xlink"><defs><path id="a" d="M.007.005H50v60.87H.007z"/></defs><g fill="none" fill-rule="evenodd"><mask id="b" fill="#fff"><use xlink:href="#a"/></mask><path d="M45.093 0H19.386c-2.672 0-4.906 2.25-4.906 4.966v13.397H4.021C1.838 18.363 0 20.194 0 22.413v16.048c0 2.219 1.838 4.05 4.021 4.05h10.46V55.91c0 2.715 2.233 4.965 4.905 4.965h25.707c2.672 0 4.907-2.25 4.907-4.965V4.966C50 2.25 47.765 0 45.093 0zM19.386 2.012h25.707c1.58 0 2.927 1.348 2.927 2.954V9.81H16.46V4.966c0-1.606 1.345-2.954 2.926-2.954zM4.02 20.375h26.92v3.145H1.98v-1.106c0-1.11.949-2.039 2.04-2.039zm-2.04 7.798h28.96v-2.641H1.98v2.641zm0 10.288v-8.275h28.96v10.313H4.02c-1.091 0-2.04-.93-2.04-2.038zm28.96 4.05v.226a.998.998 0 0 0 .99 1.006c.546 0 .99-.45.99-1.006v-24.6a.998.998 0 0 0-.99-1.006c-.547 0-.99.45-.99 1.006v.226H16.46v-6.54h31.56v35.216H16.46v-4.528h14.48zm14.152 16.35H19.386c-1.58 0-2.926-1.347-2.926-2.952v-6.857h31.56v6.857c0 1.605-1.347 2.953-2.927 2.953z" fill="#CD171A" mask="url(#b)"/><path d="M27.958 7h8.084c.529 0 .958-.448.958-1s-.429-1-.958-1h-8.084C27.429 5 27 5.448 27 6s.429 1 .958 1zM32.5 50a3.5 3.5 0 1 0 0 7 3.5 3.5 0 0 0 0-7zm0 5.054a1.554 1.554 0 1 1 0-3.108 1.554 1.554 0 0 1 0 3.108zM9.028 33c-.539 0-1.066.147-1.527.427a2.953 2.953 0 0 0-3.795.632 3.021 3.021 0 0 0 0 3.882 2.953 2.953 0 0 0 3.795.631 2.95 2.95 0 0 0 3.413-.254 3.017 3.017 0 0 0 .912-3.33A2.973 2.973 0 0 0 9.028 33zm-4.072 3a1.025 1.025 0 0 1 .392-.812c.248-.195.572-.262.876-.183a3.019 3.019 0 0 0 0 1.99c-.304.08-.628.012-.876-.183A1.026 1.026 0 0 1 4.956 36zm4.072 1.028a1.045 1.045 0 0 1-.25-.033 3.019 3.019 0 0 0 0-1.99c.381-.098.785.035 1.036.342.25.307.303.732.135 1.092-.169.36-.527.589-.921.588z" fill="#CD171A"/></g></svg>
